X: 12698
T: Father Dollard's
R: hornpipe
M: 4/4
K: Dmajor
|:A>F|D2 (3FED A>DF>A|d>ef>d (3efe d>B|A>DF>B A>FE>D|
E>FG>F E>F (3GFE|D2 (3FED A>DF>A|d>ef>d (3efe d>B|
A>DF>B A>FE>F|D2D>E D2:|:d>e|(3fed c>d B>dA>d|
f>da>d b>da>f|g>fe>d c>de>f|(3gag g>f g>fe>d|
A>dc>d G>dc>d|F>dc>d E>dc>d|A>df>a g>ec>d|(3efe d>c d2:|

